assets/ai/ai-coursera-square.svg

<svg xmlns="http://www.w3.org/2000/svg" width="100%" height="100%" viewBox="-75.52 -43.52 599.04 599.04"><path d="M 48 32 C 21.5 32 0 53.5 0 80 L 0 432 C 0 458.5 21.5 480 48 480 L 400 480 C 426.5 480 448 458.5 448 432 L 448 80 C 448 53.5 426.5 32 400 32 L 48 32 z M 151.28906 174.26953 L 152.03711 174.26953 C 153.33576 174.28043 154.66617 174.30262 155.98633 174.35742 C 157.19819 174.41211 158.43462 174.56407 159.64648 174.63867 C 159.84117 174.66107 160.05545 174.6821 160.24609 174.7168 C 168.1458 175.3982 175.82071 176.90437 183.13672 179.34961 C 183.98074 179.62013 184.79276 179.9228 185.61523 180.21484 C 185.88575 180.30161 186.15609 180.40856 186.41602 180.50586 C 193.29857 183.09254 199.54159 186.27341 205.07227 189.97461 L 181.95703 231.47852 C 174.58778 224.17307 165.34497 220.42924 153.36523 219.97461 L 151.01758 219.9082 C 143.47478 219.9082 136.89382 221.47771 131.11523 224.62695 A 16.946578 16.946578 0 0 0 130.24023 225.11328 C 128.1738 226.34665 126.19209 227.73242 124.29883 229.36719 C 116.5176 236.1739 112.65497 244.05253 112.23242 254.18164 C 112.23242 254.32164 112.21994 254.47331 112.21094 254.64648 C 112.01627 261.01059 113.41326 267.01665 116.5625 272.89258 C 119.35444 278.07545 123.0877 282.23275 127.95703 285.46875 A 37.708483 37.708483 0 0 0 129.80859 286.63672 C 135.77128 290.1644 142.4917 292.01495 150.32617 292.32812 C 151.27807 292.38283 152.20989 292.42578 153.11914 292.42578 C 166.12845 292.42578 176.24598 287.62062 185.19531 277.80469 C 189.21007 272.22078 192.8037 265.45707 196.1582 258.67188 L 197.8457 255.25195 L 198.64844 253.68359 L 198.62695 253.66211 L 213.91797 222.74414 A 159.01529 159.01529 0 0 1 217.35938 217.05078 C 219.10206 214.14944 221.47192 210.92575 224.03711 207.80859 L 224.08008 207.85156 L 224.08984 207.87305 C 225.32321 206.34763 226.6439 204.78905 228.0293 203.23047 L 229.90039 201.26172 L 230.25781 200.87109 L 230.99414 200.14648 L 230.97266 200.14648 L 232.54102 198.48047 L 233.68945 197.35352 C 235.28011 195.89193 236.76112 194.56327 238.125 193.48047 C 244.82343 188.09124 253.0179 183.59916 262.42188 180.20312 C 271.75111 176.77242 281.67358 174.82459 291.93359 174.35938 C 293.43892 174.30478 294.93133 174.2832 296.35938 174.2832 C 310.9688 174.2832 324.65908 177.27137 337.05078 183.19141 C 345.28555 187.16207 352.59099 192.1833 358.90039 198.25391 C 363.21922 202.39774 367.08296 207.01884 370.45898 212.10547 C 378.02291 223.51207 382.48118 236.14214 383.67188 249.63672 L 383.67188 249.6582 L 383.67188 249.67969 C 383.76917 250.92363 383.85536 252.14636 383.91016 253.40234 A 133.97395 133.97395 0 0 1 384 256.87695 L 384 257.49414 C 383.92417 278.21795 375.79569 295.72804 360.81836 311.0625 C 345.00653 327.20901 323.08097 336.63593 298.48242 337.66406 C 296.81593 337.72916 297.1403 337.73047 295.53906 337.73047 C 281.71928 337.73047 269.20902 334.78648 257.70508 329.87305 C 252.96481 327.81719 247.02374 324.50411 242.42383 321.13867 C 237.8345 317.76266 231.13672 311.00977 231.13672 311.00977 L 252.69336 271.36914 C 257.8558 276.72664 268.32121 288.71642 284.75977 292.13672 L 284.86719 292.09375 C 289.14153 293.03512 293.67576 293.34917 298.33984 292.94922 C 320.74107 291.01184 337.45023 273.16514 335.6543 253.08008 C 333.84746 232.99502 314.21566 218.27632 291.81445 220.20312 C 278.45988 221.35119 267.12956 228.15688 260.53906 237.71289 L 260.46289 237.83203 C 257.63886 241.84642 255.50729 245.66628 252.55273 251.04492 L 251.55664 252.83984 L 250.36719 255.13477 L 250.36719 255.21094 C 250.36719 255.21094 230.3234 292.86166 224.16602 303.20703 L 223.42969 304.26562 L 222.69336 305.34961 L 221.11328 307.33008 L 216.96875 312.01367 C 215.8648 313.17231 214.69654 314.29955 213.52734 315.41406 L 212.83594 316.07227 C 210.84533 317.88023 208.80003 319.57929 206.61328 321.14844 L 204.79492 322.39258 L 203.71094 323.11914 C 202.25117 324.13669 200.77928 325.08764 199.2207 325.98633 C 196.35255 327.59814 193.55142 329.04983 190.66211 330.2832 C 179.10492 335.23894 166.21517 337.7168 152.28711 337.7168 C 150.72853 337.7168 149.16994 337.67447 147.58984 337.60938 C 122.97013 336.58161 102.463 327.87893 86.695312 311.73242 C 71.587474 296.34314 63.991 278.01172 64 257.16797 C 64 255.92257 64.031338 254.65834 64.085938 253.38086 C 64.735258 238.4783 69.259755 224.59453 77.548828 212.08398 C 85.859444 199.57344 97.071654 189.86593 110.90234 183.19922 C 123.25029 177.3007 136.75575 174.32433 151.28906 174.26953 z"/></svg>

<svg xmlns="http://www.w3.org/2000/svg" width="100%" height="100%" viewBox="-75.52 -43.52 599.04 599.04"><path d="M48 32C21.5 32 0 53.5 0 80v352c0 26.5 21.5 48 48 48h352c26.5 0 48-21.5 48-48V80c0-26.5-21.5-48-48-48H48zm103.29 142.27h.747c1.299.01 2.63.033 3.95.087 1.211.055 2.448.207 3.66.282.194.022.408.043.6.078 7.899.681 15.574 2.187 22.89 4.633.844.27 1.656.573 2.478.865.27.087.541.194.801.29 6.883 2.588 13.126 5.768 18.656 9.47l-23.115 41.504c-7.37-7.306-16.612-11.05-28.592-11.504l-2.347-.067c-7.543 0-14.124 1.57-19.903 4.719a16.947 16.947 0 00-.875.486c-2.066 1.234-4.048 2.62-5.941 4.254-7.781 6.807-11.644 14.686-12.067 24.815 0 .14-.012.291-.021.464-.195 6.365 1.202 12.37 4.352 18.247 2.791 5.182 6.525 9.34 11.394 12.576a37.708 37.708 0 001.852 1.168c5.962 3.527 12.683 5.378 20.517 5.691.952.055 1.884.098 2.793.098 13.01 0 23.127-4.805 32.076-14.621 4.015-5.584 7.609-12.348 10.963-19.133l1.688-3.42.802-1.568-.021-.022 15.291-30.918a159.015 159.015 0 013.441-5.693c1.743-2.902 4.113-6.125 6.678-9.242l.043.043.01.021a130.803 130.803 0 013.94-4.643l1.87-1.968.358-.39.736-.726h-.021l1.568-1.666 1.148-1.126c1.591-1.462 3.072-2.79 4.436-3.874 6.698-5.389 14.893-9.88 24.297-13.277 9.33-3.43 19.252-5.378 29.512-5.844 1.505-.054 2.997-.076 4.425-.076 14.61 0 28.3 2.988 40.692 8.908 8.235 3.971 15.54 8.992 21.85 15.063a81.945 81.945 0 0111.558 13.851c7.564 11.407 12.022 24.037 13.213 37.532v.043c.097 1.244.183 2.466.238 3.722a133.974 133.974 0 01.09 3.475v.617c-.076 20.724-8.204 38.234-23.182 53.568-15.811 16.147-37.737 25.574-62.336 26.602-1.666.065-1.342.066-2.943.066-13.82 0-26.33-2.944-37.834-7.857-4.74-2.056-10.681-5.369-15.281-8.734-4.59-3.376-11.287-10.13-11.287-10.13l21.556-39.64c5.163 5.358 15.628 17.347 32.067 20.768l.107-.043c4.275.941 8.809 1.255 13.473.855 22.401-1.937 39.11-19.784 37.314-39.869-1.807-20.085-21.438-34.804-43.84-32.877-13.354 1.148-24.684 7.954-31.275 17.51l-.076.119c-2.824 4.014-4.956 7.834-7.91 13.213l-.996 1.795-1.19 2.295v.076s-20.044 37.65-26.201 47.996l-.736 1.059-.737 1.084-1.58 1.98-4.144 4.684c-1.104 1.158-2.272 2.286-3.442 3.4l-.691.658c-1.99 1.808-4.036 3.507-6.223 5.076l-1.818 1.245-1.084.726a61.721 61.721 0 01-4.49 2.867c-2.868 1.612-5.67 3.064-8.559 4.297-11.557 4.956-24.447 7.434-38.375 7.434-1.558 0-3.117-.043-4.697-.108-24.62-1.027-45.127-9.73-60.895-25.877-15.108-15.389-22.704-33.72-22.695-54.564 0-1.245.031-2.51.086-3.787.65-14.903 5.174-28.786 13.463-41.297 8.31-12.51 19.523-22.218 33.353-28.885 12.348-5.898 25.854-8.875 40.387-8.93z"/></svg>
